X:8776
T:L'Aldeanu
R:Fandangu
C:Tradicional
S:Música Tradicional Asturiana, (C) Tello & Tito. Asturies, 2001.
S:http://pagina.de/MusTradAst <telloytito@asturies.org>
A:Asturies
Z:Les cuarenta principales
M:3/8
L:1/8
Q:3/8=72
K:C
G
|c B/c/B/c/|AFA|c B/c/B/c/|GEG|
|c B/c/B/c/|AFA|c B/c/B/A/|GEE|
|GFE|DB,D|FED|E2 E|
|GFE|DB,D|F E/F/E/D/|C2 E|
|GFE|DB,D|F E/F/E/D/|E2 E|
|G F/G/F/E/|DB,D|F E/F/E/D/|C


